icons-rebrand/svg/battery-medium-regular.svg

<svg width="32" height="32" viewBox="0 0 32 32" fill="none" xmlns="http://www.w3.org/2000/svg">
<path d="M18 10.263C17.8011 10.263 17.6103 10.3421 17.4697 10.4827C17.329 10.6234 17.25 10.8141 17.25 11.013V21.013C17.25 21.2119 17.329 21.4027 17.4697 21.5434C17.6103 21.684 17.8011 21.763 18 21.763C18.1989 21.763 18.3897 21.684 18.5303 21.5434C18.671 21.4027 18.75 21.2119 18.75 21.013V11.013C18.75 10.8141 18.671 10.6234 18.5303 10.4827C18.3897 10.3421 18.1989 10.263 18 10.263ZM22.47 10.482C22.5749 10.3773 22.7085 10.306 22.8539 10.2771C22.9993 10.2482 23.15 10.263 23.2869 10.3197C23.4239 10.3765 23.541 10.4725 23.6234 10.5957C23.7058 10.7189 23.7499 10.8638 23.75 11.012V21.012C23.75 21.2109 23.671 21.4017 23.5303 21.5424C23.3897 21.683 23.1989 21.762 23 21.762C22.8011 21.762 22.6103 21.683 22.4697 21.5424C22.329 21.4017 22.25 21.2109 22.25 21.012V11.012C22.2502 10.8132 22.3293 10.6226 22.47 10.482Z" fill="#0F0F0F"/>
<path fill-rule="evenodd" clip-rule="evenodd" d="M11 6.25H25C26.2594 6.25132 27.4668 6.75219 28.3573 7.6427C29.2478 8.53322 29.7487 9.74063 29.75 11V21C29.7484 22.2593 29.2475 23.4666 28.357 24.357C27.4666 25.2475 26.2593 25.7484 25 25.75H11C9.74063 25.7487 8.53322 25.2478 7.6427 24.3573C6.75219 23.4668 6.25132 22.2594 6.25 21V19.75H5C4.2709 19.7492 3.57189 19.4592 3.05633 18.9437C2.54078 18.4281 2.25079 17.7291 2.25 17V15C2.25079 14.2709 2.54078 13.5719 3.05633 13.0563C3.57189 12.5408 4.2709 12.2508 5 12.25H6.25V11C6.25132 9.74063 6.75219 8.53322 7.6427 7.6427C8.53322 6.75219 9.74063 6.25132 11 6.25ZM5 18.25H6.25V13.75H5C4.66856 13.7503 4.35077 13.882 4.11641 14.1164C3.88205 14.3508 3.75026 14.6686 3.75 15V17C3.75026 17.3314 3.88205 17.6492 4.11641 17.8836C4.35077 18.118 4.66856 18.2497 5 18.25ZM27.297 23.297C27.907 22.687 28.249 21.862 28.25 21V11C28.2489 10.1384 27.9062 9.31234 27.2969 8.70307C26.6877 8.09381 25.8616 7.75106 25 7.75H11C10.1384 7.75106 9.31234 8.09381 8.70307 8.70307C8.09381 9.31234 7.75106 10.1384 7.75 11V21C7.75106 21.8616 8.09381 22.6877 8.70307 23.2969C9.31234 23.9062 10.1384 24.2489 11 24.25H25C25.8616 24.249 26.6877 23.9063 27.297 23.297Z" fill="#0F0F0F"/>
</svg>

<svg width="32" height="32" viewBox="0 0 32 32" fill="none" xmlns="http://www.w3.org/2000/svg"><path d="M18 10.263a.75.75 0 0 0-.75.75v10a.75.75 0 1 0 1.5 0v-10a.75.75 0 0 0-.75-.75zM22.47 10.482a.75.75 0 0 1 1.28.53v10a.75.75 0 0 1-1.5 0v-10a.75.75 0 0 1 .22-.53z" fill="#0F0F0F"/><path fill-rule="evenodd" clip-rule="evenodd" d="M11 6.25h14A4.755 4.755 0 0 1 29.75 11v10A4.756 4.756 0 0 1 25 25.75H11A4.755 4.755 0 0 1 6.25 21v-1.25H5A2.753 2.753 0 0 1 2.25 17v-2A2.753 2.753 0 0 1 5 12.25h1.25V11A4.755 4.755 0 0 1 11 6.25zm-6 12h1.25v-4.5H5A1.251 1.251 0 0 0 3.75 15v2A1.251 1.251 0 0 0 5 18.25zm22.297 5.047c.61-.61.952-1.435.953-2.297V11A3.254 3.254 0 0 0 25 7.75H11A3.254 3.254 0 0 0 7.75 11v10A3.254 3.254 0 0 0 11 24.25h14a3.254 3.254 0 0 0 2.297-.953z" fill="#0F0F0F"/></svg>
